flaticon/constructions/swiss-army-knife-1.svg

<svg xmlns="http://www.w3.org/2000/svg" width="32" height="32" viewBox="0 0 24 24">
    <path d="M12.007812 17.601562C10.6875 17.601562 9.605469 18.679688 9.605469 20 9.605469 21.320312 10.6875 22.398438 12.007812 22.398438 13.328125 22.398438 14.40625 21.320312 14.40625 20 14.40625 18.679688 13.328125 17.601562 12.007812 17.601562zM12.007812 21.601562C11.125 21.601562 10.40625 20.878906 10.40625 20 10.40625 19.121094 11.125 18.398438 12.007812 18.398438 12.886719 18.398438 13.605469 19.121094 13.605469 20 13.605469 20.878906 12.886719 21.601562 12.007812 21.601562zM12.007812 6.398438C13.328125 6.398438 14.40625 5.320312 14.40625 4 14.40625 2.679688 13.328125 1.601562 12.007812 1.601562 10.6875 1.601562 9.605469 2.679688 9.605469 4 9.605469 5.320312 10.6875 6.398438 12.007812 6.398438zM12.007812 2.398438C12.886719 2.398438 13.605469 3.121094 13.605469 4 13.605469 4.878906 12.886719 5.601562 12.007812 5.601562 11.125 5.601562 10.40625 4.878906 10.40625 4 10.40625 3.121094 11.125 2.398438 12.007812 2.398438zM12.007812 2.398438"/>
    <path d="M 22.765625 16.601562 L 16.808594 5.078125 L 16.808594 4.800781 C 16.808594 2.160156 14.648438 0 12.007812 0 C 9.40625 0 7.273438 2.09375 7.207031 4.675781 L 1.246094 16.601562 C 1.167969 16.71875 1.167969 16.878906 1.246094 17 C 1.328125 17.121094 1.488281 17.199219 1.605469 17.199219 L 2.007812 17.199219 C 4.085938 17.199219 5.808594 16.121094 6.726562 14.199219 C 6.765625 14.078125 6.765625 13.960938 6.726562 13.839844 L 6.167969 12.679688 L 7.207031 12.433594 L 7.207031 19.199219 C 7.207031 21.839844 9.367188 24 12.007812 24 C 14.648438 24 16.808594 21.839844 16.808594 19.199219 L 16.808594 14.546875 C 18.105469 15.851562 19.980469 17.132812 22.40625 17.199219 C 22.566406 17.199219 22.6875 17.121094 22.765625 17 C 22.808594 16.878906 22.847656 16.71875 22.765625 16.601562 Z M 5.488281 12 C 5.367188 12.039062 5.246094 12.121094 5.207031 12.238281 C 5.167969 12.359375 5.167969 12.480469 5.207031 12.601562 L 5.925781 14 C 5.167969 15.441406 3.808594 16.320312 2.246094 16.398438 L 7.167969 6.558594 L 7.167969 11.601562 Z M 16.007812 19.199219 C 16.007812 21.398438 14.207031 23.199219 12.007812 23.199219 C 9.808594 23.199219 8.007812 21.398438 8.007812 19.199219 L 8.007812 4.800781 C 8.007812 2.601562 9.808594 0.800781 12.007812 0.800781 C 14.207031 0.800781 16.007812 2.601562 16.007812 4.800781 L 16.007812 7.816406 C 15.984375 7.882812 15.984375 7.957031 16.007812 8.027344 Z M 16.808594 13.359375 L 16.808594 9.601562 L 17.6875 11.320312 C 17.765625 11.441406 17.886719 11.519531 18.046875 11.519531 C 18.125 11.519531 18.167969 11.519531 18.207031 11.480469 C 18.40625 11.398438 18.488281 11.160156 18.367188 10.960938 L 16.808594 7.917969 L 16.808594 6.839844 L 21.726562 16.320312 C 19.527344 16.039062 17.847656 14.601562 16.808594 13.359375 Z M 16.808594 13.359375"/>
    <path d="M 14.808594 10.398438 L 13.605469 10.398438 L 13.605469 9.199219 C 13.605469 8.960938 13.445312 8.800781 13.207031 8.800781 L 10.808594 8.800781 C 10.566406 8.800781 10.40625 8.960938 10.40625 9.199219 L 10.40625 10.398438 L 9.207031 10.398438 C 8.96875 10.398438 8.808594 10.558594 8.808594 10.800781 L 8.808594 13.199219 C 8.808594 13.441406 8.96875 13.601562 9.207031 13.601562 L 10.40625 13.601562 L 10.40625 14.800781 C 10.40625 15.039062 10.566406 15.199219 10.808594 15.199219 L 13.207031 15.199219 C 13.445312 15.199219 13.605469 15.039062 13.605469 14.800781 L 13.605469 13.601562 L 14.808594 13.601562 C 15.046875 13.601562 15.207031 13.441406 15.207031 13.199219 L 15.207031 10.800781 C 15.207031 10.558594 15.046875 10.398438 14.808594 10.398438 Z M 14.40625 12.800781 L 13.207031 12.800781 C 12.96875 12.800781 12.808594 12.960938 12.808594 13.199219 L 12.808594 14.398438 L 11.207031 14.398438 L 11.207031 13.199219 C 11.207031 12.960938 11.046875 12.800781 10.808594 12.800781 L 9.605469 12.800781 L 9.605469 11.199219 L 10.808594 11.199219 C 11.046875 11.199219 11.207031 11.039062 11.207031 10.800781 L 11.207031 9.601562 L 12.808594 9.601562 L 12.808594 10.800781 C 12.808594 11.039062 12.96875 11.199219 13.207031 11.199219 L 14.40625 11.199219 Z M 14.40625 12.800781"/>
</svg>

<svg xmlns="http://www.w3.org/2000/svg" width="32" height="32" viewBox="0 0 24 24">
    <path d="M12.008 17.602A2.407 2.407 0 0 0 9.605 20a2.407 2.407 0 0 0 2.403 2.398A2.404 2.404 0 0 0 14.406 20a2.404 2.404 0 0 0-2.398-2.398zm0 4A1.606 1.606 0 0 1 10.406 20c0-.879.719-1.602 1.602-1.602.879 0 1.597.723 1.597 1.602 0 .879-.718 1.602-1.597 1.602zm0 0M12.008 6.398A2.404 2.404 0 0 0 14.406 4a2.404 2.404 0 0 0-2.398-2.398A2.407 2.407 0 0 0 9.605 4a2.407 2.407 0 0 0 2.403 2.398zm0-4c.879 0 1.597.723 1.597 1.602 0 .879-.718 1.602-1.597 1.602A1.606 1.606 0 0 1 10.406 4c0-.879.719-1.602 1.602-1.602zm0 0"/>
    <path d="M22.766 16.602L16.809 5.078v-.277c0-2.64-2.16-4.801-4.801-4.801a4.816 4.816 0 0 0-4.801 4.676l-5.96 11.926a.368.368 0 0 0 0 .398.48.48 0 0 0 .358.2h.403c2.078 0 3.8-1.079 4.719-3a.566.566 0 0 0 0-.36l-.559-1.16 1.039-.246v6.765c0 2.64 2.16 4.801 4.8 4.801 2.641 0 4.802-2.16 4.802-4.8v-4.653c1.296 1.305 3.171 2.586 5.597 2.652.16 0 .282-.078.36-.199.043-.121.082-.281 0-.398zM5.488 12c-.12.04-.242.121-.281.238a.578.578 0 0 0 0 .364L5.926 14c-.758 1.441-2.117 2.32-3.68 2.398l4.922-9.84v5.044zm10.52 7.2c0 2.198-1.801 4-4 4-2.2 0-4-1.802-4-4V4.8c0-2.198 1.8-4 4-4 2.199 0 4 1.802 4 4v3.016a.325.325 0 0 0 0 .211zm.8-5.84V9.601l.88 1.718c.078.121.199.2.359.2.078 0 .121 0 .16-.04.2-.082.281-.32.16-.52L16.81 7.919V6.84l4.918 9.48c-2.2-.28-3.88-1.718-4.918-2.96zm0 0"/>
    <path d="M14.809 10.398h-1.204V9.2c0-.238-.16-.398-.398-.398h-2.398c-.243 0-.403.16-.403.398v1.2H9.207c-.238 0-.398.16-.398.402v2.398c0 .242.16.403.398.403h1.2V14.8c0 .238.16.398.402.398h2.398c.238 0 .398-.16.398-.398v-1.2h1.204c.238 0 .398-.16.398-.402v-2.398c0-.242-.16-.403-.398-.403zm-.403 2.403h-1.199c-.238 0-.398.16-.398.398v1.2h-1.602v-1.2c0-.238-.16-.398-.398-.398H9.605v-1.602h1.204c.238 0 .398-.16.398-.398V9.6h1.602v1.2c0 .238.16.398.398.398h1.2zm0 0"/>
</svg>
